!!!COM: Bach, Johann Sebastian
!!!OPR: Joh. Seb. Bachs vierstimmige Choralges‰nge
!!!XEN: Four-part Chorales
!!!OTL: 113. Ihr Gestirn', ihr hohen L¸fte
!!!SCT: BWV 366
!!!SCA: Thematisch-systematisches Verzeichnis der musikalischen Werke Johann Sebastian Bach: Bach-Werke-Verzeichnis (Schmieder)
!!!YOR: Bach Gesellschaft Edition xxxix
!!!ENC: Steven Rasmussen
!!!CDT: 1685/3//-1750/7/28/
!!!OCY: Deutschland
!!!YEC: Copyright (c) 1994, 2000 Center for Computer Assisted Research in the Humanities
!!!YEM: Rights to all derivative editions reserved
!!!YEN: United States of America
**kern	**silbe	**kern	**silbe	**kern	**silbe	**kern	**silbe
*I:[SOPRANO]	*I:[SOPRANO]	*I:[ALTO]	*I:[ALTO]	*I:[TENORE]	*I:[TENORE]	*I:[BASSO]	*I:[BASSO]
*>[A,A,B]	*	*>[A,A,B]	*	*>[A,A,B]	*	*>[A,A,B]	*
*>A	*	*>A	*	*>A	*	*>A	*
*clefG2	*	*clefG2	*	*clefGv2	*	*clefF4	*
*k[b-]	*	*k[b-]	*	*k[b-]	*	*k[b-]	*
*d:	*	*d:	*	*d:	*	*d:	*
*M3/4	*	*M3/4	*	*M3/4	*	*M3/4	*
=1-	=1-	=1-	=1-	=1-	=1-	=1-	=1-
2d	Ihrtie-	2A	.	8FL	.	8DL	.
.	.	.	.	8GJ	.	8E	.
.	.	.	.	4A	.	8F	.
.	.	.	.	.	.	8GJ	.
4e	Ge--fes	4c#	.	4G	.	8FL	.
.	.	.	.	.	.	8EJ	.
=2	=2	=2	=2	=2	=2	=2	=2
2f	-stirn',Rund,	2d	.	2A	.	4D	.
.	.	.	.	.	.	8CL	.
.	.	.	.	.	.	8BB-J	.
4g	ihrihr	4e	.	4B-	.	8AAL	.
.	.	.	.	.	.	8GGJ	.
=3	=3	=3	=3	=3	=3	=3	=3
2a	ho-dunk-	4.f	.	4c	.	8FFL	.
.	.	.	.	.	.	8GG	.
.	.	.	.	8dL	.	8FF	.
.	.	8g	.	8eJ	.	8EEJ	.
4dd	-hen-len	4a	.	4f	.	4DD	.
=4	=4	=4	=4	=4	=4	=4	=4
2cc#	L√ºf-Kl√ºf-	2a	.	2e	.	2AA	.
4cc#;	-te,-te,	4a;	.	4e;	.	4AA;	.
=5	=5	=5	=5	=5	=5	=5	=5
2dd	unddie	2a	.	2f	.	8DL	.
.	.	.	.	.	.	8E	.
.	.	.	.	.	.	8F	.
.	.	.	.	.	.	8EJ	.
4ee	du,der	4a	.	4e	.	8DL	.
.	.	.	.	.	.	8C#J	.
=6	=6	=6	=6	=6	=6	=6	=6
2.ff	lich-Wie-	4.a	lich-Wie-	8dL	.	[2.D	lich-Wie-
.	.	.	.	8c#	.	.	.
.	.	.	.	8d	.	.	.
.	.	8g	.	8eJ	.	.	.
.	.	8fL	-tes-der-	8dL	.	.	.
.	.	8eJ	.	8cnJ	.	.	.
=7	=7	=7	=7	=7	=7	=7	=7
4f	-tes-der-	2f	Fir--hall	8B-L	.	8D]	.
.	.	.	.	8AJ	.	8C	-tes-der-
4.g	Fir--hall	.	.	4d	.	4BB-	Fir--hall
.	.	4e	-ma-zer-	8.cL	.	4C	-ma-zer-
8g	-ma-zer-	.	.	.	.	.	.
.	.	.	.	16B-Jk	.	.	.
=8	=8	=8	=8	=8	=8	=8	=8
2.f;/xx	-ment;-trennt.	2.c;/xx	-ment;-trennt.	2.A;/xx	.	2.FF;/xx	-ment;-trennt.
=9:|!	=9:|!	=9:|!	=9:|!	=9:|!	=9:|!	=9:|!	=9:|!
*>B	*	*>B	*	*>B	*	*>B	*
2g	Jauch-	4e	Jauch-	2c	Jauch-	4C	.
.	.	4f	-zet	.	.	4D	.
4g	-zet	[4g	fr√∂h-	4c	-zet	4E	.
=10	=10	=10	=10	=10	=10	=10	=10
2a	fr√∂h-	8g]	.	4.c	fr√∂h-	4F	.
.	.	4f	.	.	.	.	.
.	.	.	.	.	.	4G	.
.	.	8e	.	8B-	.	.	.
4cc	-lich,	4f	-lich,	4A	-lich,	4A	.
=11	=11	=11	=11	=11	=11	=11	=11
2b-	lasst	4f	.	2d	.	4G	.
.	.	8eL	.	.	.	4GG	.
.	.	8dJ	.	.	.	.	.
4g	das	4e	.	4c	.	4C	.
=12	=12	=12	=12	=12	=12	=12	=12
2a	Sin-	2f	.	2c	.	2F	.
4a;	-gen	4f;	.	4c;	.	4F;	.
=13	=13	=13	=13	=13	=13	=13	=13
2cc	jetzt	2a	.	2f	.	4F	.
.	.	.	.	.	.	8FFL	.
.	.	.	.	.	.	8GGJ	.
4cc	bis	8aL	.	8fL	.	4AA	.
.	.	8gJ	.	8e-J	.	.	.
=14	=14	=14	=14	=14	=14	=14	=14
2dd	durch	8fL	.	2d	.	4BB-	.
.	.	8e	.	.	.	.	.
.	.	8f	.	.	.	4B-	.
.	.	8gJ	.	.	.	.	.
4ff	die	4a	.	4c	.	4A	.
=15	=15	=15	=15	=15	=15	=15	=15
4ee	Wol-	8b-L	.	4B-	.	4G	.
.	.	8g	.	.	.	.	.
4dd	.	8f	.	4Bn	.	4G#	.
.	.	8eJ	.	.	.	.	.
4cc#	-ken	8eL	.	4A	.	4A	.
.	.	8gJ	.	.	.	.	.
=16	=16	=16	=16	=16	=16	=16	=16
2dd	drin-	2f#	.	2A	.	2D	.
4dd;	-gen.	4f#;	.	4A;	.	4D;	.
==|!	==|!	==|!	==|!	==|!	==|!	==|!	==|!
*-	*-	*-	*-	*-	*-	*-	*-
!!!RWG: Key is interpreted using the Humdrum key tool.
!!!END: 1994/07/13
!!!EMD: Converted from MuseData to Humdrum Dec 19, 2000, by Andreas Kornstaedt using muse2kern.
!!!EED: Craig Stuart Sapp
!!!EEV: 2024/03/31
!!!ONB: Some non-unicode characters
